assets/inertia/mono.svg

<svg viewBox="0 0 24 24" xmlns="http://www.w3.org/2000/svg"><path d="m6.901 5.331h-6.901l6.669 6.669-6.669 6.669h6.901l6.67-6.669-6.671-6.669zm10.43 0h-6.901l6.669 6.669-6.67 6.669h6.902l6.669-6.669z"/></svg>

<svg xmlns="http://www.w3.org/2000/svg" viewBox="0 0 24 24"><path d="M6.901 5.331H0L6.669 12 0 18.669h6.901L13.571 12 6.9 5.331zm10.43 0H10.43L17.099 12l-6.67 6.669h6.902L24 12z"/></svg>
